X:18
T:Svanpolska efter Pelle Fors
R:sl-polska
H:\"Aven i Gm, #47. Jfr #121.
N:St\"amning AEAE. o = flageolett
A:\"Osterg\"otland
B:SvL \"Ogl 344
Z:id:hn-sp-18
M:3/4
L:1/16
K:Am
"o"a4 "o"b4 "o"e3e|gag^f d2d2 e3B|cdcB A^GAB cdcB|A2a2 a^gbg e4|
"o"a4 "o"b4 "o"e3e|gag^f d2d2 e3B|cdcB A^GAB cdcB|{cd}c2{dc}BA ^G2A2 [A4E4A,4]:|
|:E^GAB cdcB ABcd|e2a2 a^gbg ag^fg|e2^g2 a2b2 b2c'2|c'2a2 aba^g ag^fg|
E^GAB cdcB ABcd|e2a2 a^gbg ag^fg|e2^g2 a2b2 b2c'2|c'2a2 aba^g ag^fg|
eceg ^fdfd ecec|eceg ^fdfd ecec|cdcB ABcd e=feB|c2{dc}BA ^G2A2 [A4E4A,4]:|
%takt 4 och 8 i andra delen \"aven |c'2a2 ba^ga ^f2e2| eller |c'2a2 aba^g ^g2e2|

